app/dist/common/images/australian-mines-ltd.svg

<svg fill="none" height="18" viewBox="0 0 18 18" width="18" xmlns="http://www.w3.org/2000/svg"><path d="m0 0h18v18h-18z" fill="#f0f3fa"/><path d="m12 12-3.75682-5.36066c-.59741-.85245-1.88895-.85245-2.48636 0l-3.75682 5.36066h2.31788l2.68212-3.83333 2.68212 3.83333z" fill="#ac1e2e"/><g fill="#808080"><path d="m10.6755 6.61496c.4962-.81995 1.5691-.81995 2.0653 0l3.2592 5.38504h-1.9896l-2.2736-3.83333-.7894 1.19061-.9474-1.52395z"/><path d="m7 12 1-2h-2z"/></g></svg>

<!-- by TradingView --><svg width="18" height="18" viewBox="0 0 18 18" fill="none" xmlns="http://www.w3.org/2000/svg">
<rect width="18" height="18" fill="#F0F3FA"/>
<path d="M12 12L8.24318 6.63934C7.64577 5.78689 6.35423 5.78689 5.75682 6.63934L2 12H4.31788L7 8.16667L9.68212 12H12Z" fill="#AC1E2E"/>
<path d="M10.6755 6.61496C11.1717 5.79501 12.2446 5.79501 12.7408 6.61496L16 12H14.0104L11.7368 8.16667L10.9474 9.35728L10 7.83333L10.6755 6.61496Z" fill="#808080"/>
<path d="M7 12L8 10H6L7 12Z" fill="#808080"/>
</svg>
